src/assets/hearts_A.svg

<?xml version="1.0" encoding="UTF-8"?>
<svg xmlns="http://www.w3.org/2000/svg" xmlns:xlink="http://www.w3.org/1999/xlink" width="99px" height="140px" viewBox="0 0 99 140" version="1.1">
<g id="surface1">
<path style="fill-rule:nonzero;fill:rgb(100%,100%,100%);fill-opacity:1;stroke-width:0.755906;stroke-linecap:butt;stroke-linejoin:miter;stroke:rgb(50.196078%,50.196078%,50.196078%);stroke-opacity:1;stroke-miterlimit:4;" d="M 9.297585 719.743103 L 224.702415 719.743103 C 229.632812 719.743103 233.621449 723.747651 233.621449 728.681329 L 233.621449 1043.042991 C 233.621449 1047.976669 229.632812 1051.981217 224.702415 1051.981217 L 9.297585 1051.981217 C 4.367188 1051.981217 0.378551 1047.976669 0.378551 1043.042991 L 0.378551 728.681329 C 0.378551 723.747651 4.367188 719.743103 9.297585 719.743103 Z M 9.297585 719.743103 " transform="matrix(0.423077,0,0,0.42042,0,-302.434542)"/>
<path style=" stroke:none;fill-rule:nonzero;fill:rgb(100%,0%,0%);fill-opacity:1;" d="M 7.273438 25.789062 C 6.902344 24.992188 6.417969 24.246094 5.84375 23.578125 C 5.472656 23.148438 5.066406 22.753906 4.65625 22.367188 C 4.332031 22.0625 4.003906 21.761719 3.742188 21.40625 C 3.5625 21.164062 3.414062 20.894531 3.34375 20.605469 C 3.214844 20.074219 3.355469 19.507812 3.617188 19.03125 C 3.773438 18.753906 3.96875 18.5 4.210938 18.296875 C 4.574219 17.992188 5.042969 17.8125 5.511719 17.851562 C 5.9375 17.886719 6.339844 18.105469 6.652344 18.402344 C 6.925781 18.667969 7.140625 18.996094 7.277344 19.355469 C 7.417969 18.996094 7.632812 18.667969 7.90625 18.402344 C 8.21875 18.105469 8.621094 17.886719 9.046875 17.851562 C 9.515625 17.8125 9.984375 17.992188 10.347656 18.296875 C 10.589844 18.5 10.785156 18.753906 10.941406 19.03125 C 11.203125 19.507812 11.34375 20.074219 11.214844 20.605469 C 11.144531 20.894531 10.996094 21.164062 10.816406 21.40625 C 10.554688 21.761719 10.226562 22.0625 9.902344 22.367188 C 9.492188 22.753906 9.085938 23.148438 8.714844 23.578125 C 8.140625 24.246094 7.65625 24.992188 7.285156 25.789062 "/>
<path style=" stroke:none;fill-rule:nonzero;fill:rgb(100%,0%,0%);fill-opacity:1;" d="M 91.714844 114.210938 C 91.34375 115.007812 90.859375 115.753906 90.285156 116.421875 C 89.914062 116.851562 89.507812 117.246094 89.097656 117.632812 C 88.773438 117.9375 88.445312 118.238281 88.183594 118.59375 C 88.003906 118.835938 87.855469 119.105469 87.785156 119.394531 C 87.65625 119.925781 87.796875 120.492188 88.058594 120.96875 C 88.214844 121.246094 88.410156 121.5 88.652344 121.703125 C 89.015625 122.007812 89.484375 122.1875 89.953125 122.148438 C 90.378906 122.113281 90.78125 121.894531 91.09375 121.597656 C 91.367188 121.332031 91.582031 121.003906 91.722656 120.644531 C 91.859375 121.003906 92.074219 121.332031 92.347656 121.597656 C 92.660156 121.894531 93.0625 122.113281 93.488281 122.148438 C 93.957031 122.1875 94.425781 122.007812 94.789062 121.703125 C 95.03125 121.5 95.226562 121.246094 95.382812 120.96875 C 95.644531 120.492188 95.785156 119.925781 95.65625 119.394531 C 95.585938 119.105469 95.4375 118.835938 95.257812 118.59375 C 94.996094 118.238281 94.667969 117.9375 94.34375 117.632812 C 93.933594 117.246094 93.527344 116.851562 93.15625 116.421875 C 92.582031 115.753906 92.097656 115.007812 91.726562 114.210938 "/>
<path style=" stroke:none;fill-rule:nonzero;fill:rgb(100%,0%,0%);fill-opacity:1;" d="M 49.484375 81.914062 C 48.363281 79.519531 46.914062 77.28125 45.191406 75.285156 C 44.082031 73.996094 42.863281 72.808594 41.625 71.644531 C 40.660156 70.734375 39.675781 69.832031 38.886719 68.761719 C 38.351562 68.039062 37.90625 67.234375 37.695312 66.359375 C 37.3125 64.773438 37.730469 63.070312 38.519531 61.644531 C 38.980469 60.8125 39.570312 60.042969 40.300781 59.433594 C 41.382812 58.527344 42.792969 57.984375 44.191406 58.101562 C 45.476562 58.210938 46.679688 58.863281 47.613281 59.757812 C 48.445312 60.550781 49.089844 61.535156 49.5 62.617188 C 49.910156 61.535156 50.554688 60.550781 51.386719 59.757812 C 52.320312 58.863281 53.523438 58.210938 54.808594 58.101562 C 56.207031 57.984375 57.617188 58.527344 58.699219 59.433594 C 59.429688 60.042969 60.019531 60.8125 60.480469 61.644531 C 61.269531 63.070312 61.6875 64.773438 61.304688 66.359375 C 61.09375 67.234375 60.648438 68.039062 60.113281 68.761719 C 59.324219 69.832031 58.339844 70.734375 57.375 71.644531 C 56.136719 72.808594 54.917969 73.996094 53.808594 75.285156 C 52.085938 77.28125 50.636719 79.519531 49.515625 81.914062 "/>
<path style=" stroke:none;fill-rule:nonzero;fill:rgb(100%,0%,0%);fill-opacity:1;" d="M 11.261719 15.199219 L 9.625 15.199219 L 8.980469 12.746094 L 5.605469 12.746094 L 4.933594 15.199219 L 3.296875 15.199219 L 6.484375 3.285156 L 8.082031 3.285156 Z M 8.390625 10.535156 L 7.292969 6.445312 L 6.191406 10.535156 Z M 8.390625 10.535156 "/>
<path style=" stroke:none;fill-rule:nonzero;fill:rgb(100%,0%,0%);fill-opacity:1;" d="M 87.738281 124.800781 L 89.375 124.800781 L 90.019531 127.253906 L 93.394531 127.253906 L 94.066406 124.800781 L 95.703125 124.800781 L 92.515625 136.714844 L 90.917969 136.714844 Z M 90.609375 129.464844 L 91.707031 133.554688 L 92.808594 129.464844 Z M 90.609375 129.464844 "/>
</g>
</svg>

<svg xmlns="http://www.w3.org/2000/svg" width="99" height="140"><path d="M9.298 719.743h215.404c4.93 0 8.92 4.005 8.92 8.938v314.362c0 4.934-3.99 8.938-8.92 8.938H9.298c-4.93 0-8.92-4.004-8.92-8.938V728.681c0-4.933 3.99-8.938 8.92-8.938Zm0 0" style="fill-rule:nonzero;fill:#fff;fill-opacity:1;stroke-width:.755906;stroke-linecap:butt;stroke-linejoin:miter;stroke:gray;stroke-opacity:1;stroke-miterlimit:4" transform="matrix(.42308 0 0 .42042 0 -302.435)"/><path d="M7.273 25.79a9.65 9.65 0 0 0-1.43-2.212 16.55 16.55 0 0 0-1.187-1.21c-.324-.305-.652-.606-.914-.962a2.267 2.267 0 0 1-.398-.8c-.13-.532.011-1.098.273-1.575a2.64 2.64 0 0 1 .594-.734c.363-.305.832-.485 1.3-.445.426.035.829.253 1.141.55.274.266.489.594.625.953.141-.359.356-.687.63-.953.312-.297.714-.515 1.14-.55.469-.04.937.14 1.3.445.243.203.438.457.594.734.262.477.403 1.043.274 1.574-.07.29-.219.56-.399.801-.261.356-.59.657-.914.961-.41.387-.816.781-1.187 1.211a9.65 9.65 0 0 0-1.43 2.211M91.715 114.21a9.65 9.65 0 0 1-1.43 2.212c-.37.43-.777.824-1.187 1.21-.325.305-.653.606-.914.962-.18.242-.329.511-.399.8-.129.532.012 1.098.274 1.575.156.277.351.531.593.734.364.305.832.484 1.301.445.426-.035.828-.253 1.14-.55.274-.266.489-.594.63-.953.136.359.351.687.625.953.312.297.715.515 1.14.55.469.04.938-.14 1.301-.445a2.64 2.64 0 0 0 .594-.734c.262-.477.402-1.043.273-1.574a2.267 2.267 0 0 0-.398-.801c-.262-.356-.59-.656-.914-.961a16.55 16.55 0 0 1-1.188-1.211 9.65 9.65 0 0 1-1.43-2.211M49.484 81.914a28.95 28.95 0 0 0-4.293-6.629c-1.109-1.289-2.328-2.476-3.566-3.64-.965-.91-1.95-1.813-2.738-2.883-.535-.723-.98-1.528-1.192-2.403-.383-1.586.035-3.289.825-4.714.46-.833 1.05-1.602 1.78-2.211 1.083-.907 2.493-1.45 3.891-1.332 1.286.109 2.489.761 3.422 1.656a7.746 7.746 0 0 1 1.887 2.86 7.746 7.746 0 0 1 1.887-2.86c.933-.895 2.136-1.547 3.422-1.656 1.398-.118 2.808.425 3.89 1.332.73.609 1.32 1.379 1.781 2.21.79 1.426 1.208 3.13.825 4.715-.211.875-.657 1.68-1.192 2.403-.789 1.07-1.773 1.972-2.738 2.883-1.238 1.164-2.457 2.351-3.566 3.64a28.95 28.95 0 0 0-4.293 6.63M11.262 15.2H9.625l-.645-2.454H5.605L4.934 15.2H3.297L6.484 3.285h1.598ZM8.39 10.534l-1.098-4.09-1.102 4.09ZM87.738 124.8h1.637l.645 2.454h3.375l.671-2.453h1.637l-3.187 11.914h-1.598Zm2.871 4.665 1.098 4.09 1.102-4.09Zm0 0" style="stroke:none;fill-rule:nonzero;fill:red;fill-opacity:1"/></svg>
